svg/business/chart_horizontal_fill.svg

<?xml version="1.0" encoding="UTF-8"?>
<svg width="24px" height="24px" viewBox="0 0 24 24" version="1.1" xmlns="http://www.w3.org/2000/svg" xmlns:xlink="http://www.w3.org/1999/xlink">
    <title>chart_horizontal_fill</title>
    <g id="Icon" stroke="none" stroke-width="1" fill="none" fill-rule="evenodd">
        <g id="Business" transform="translate(-384.000000, -528.000000)">
            <g id="chart_horizontal_fill" transform="translate(384.000000, 528.000000)">
                <path d="M24,0 L24,24 L0,24 L0,0 L24,0 Z M12.5935,23.2578 L12.5819,23.2595 L12.5109,23.295 L12.4919,23.2987 L12.4767,23.295 L12.4057,23.2595 C12.3958,23.2564 12.387,23.259 12.3821,23.2649 L12.378,23.2758 L12.3609,23.7031 L12.3659,23.7235 L12.3769,23.7357 L12.4805,23.8097 L12.4953,23.8136 L12.5071,23.8097 L12.6107,23.7357 L12.6233,23.7197 L12.6267,23.7031 L12.6096,23.2758 C12.6076,23.2657 12.601,23.2593 12.5935,23.2578 Z M12.8584,23.1453 L12.8445,23.1473 L12.6598,23.2397 L12.6499,23.2499 L12.6472,23.2611 L12.6651,23.6906 L12.6699,23.7034 L12.6784,23.7105 L12.8793,23.8032 C12.8914,23.8069 12.9022,23.803 12.9078,23.7952 L12.9118,23.7812 L12.8777,23.1665 C12.8753,23.1546 12.8674,23.147 12.8584,23.1453 Z M12.143,23.1473 C12.1332,23.1424 12.1222,23.1453 12.1156,23.1526 L12.1099,23.1665 L12.0758,23.7812 C12.0751,23.7927 12.0828,23.8019 12.0926,23.8046 L12.1083,23.8032 L12.3092,23.7105 L12.3186,23.7024 L12.3225,23.6906 L12.3404,23.2611 L12.3372,23.2485 L12.3278,23.2397 L12.143,23.1473 Z" id="MingCute" fill-rule="nonzero"></path>
                <path d="M6.5,4 C6.5,3.17157 5.82843,2.5 5,2.5 C4.17157,2.5 3.5,3.17157 3.5,4 L3.5,20 C3.5,20.8284 4.17157,21.5 5,21.5 L19,21.5 C19.8284,21.5 20.5,20.8284 20.5,20 C20.5,19.1716 19.8284,18.5 19,18.5 L6.5,18.5 L6.5,4 Z M12,8.5 C12.8284,8.5 13.5,7.82843 13.5,7 C13.5,6.17157 12.8284,5.5 12,5.5 L9,5.5 C8.17157,5.5 7.5,6.17157 7.5,7 C7.5,7.82843 8.17157,8.5 9,8.5 L12,8.5 Z M18.5,11 C18.5,11.8284 17.8284,12.5 17,12.5 L9,12.5 C8.17157,12.5 7.5,11.8284 7.5,11 C7.5,10.1716 8.17157,9.5 9,9.5 L17,9.5 C17.8284,9.5 18.5,10.1716 18.5,11 Z M14,16.5 C14.8284,16.5 15.5,15.8284 15.5,15 C15.5,14.1716 14.8284,13.5 14,13.5 L9,13.5 C8.17157,13.5 7.5,14.1716 7.5,15 C7.5,15.8284 8.17157,16.5 9,16.5 L14,16.5 Z" id="形状" fill="#09244B"></path>
            </g>
        </g>
    </g>
</svg>

<svg xmlns="http://www.w3.org/2000/svg" width="24" height="24"><g fill="none" fill-rule="evenodd"><path d="M24 0v24H0V0zM12.594 23.258l-.012.002-.071.035-.02.004-.014-.004-.071-.036c-.01-.003-.019 0-.024.006l-.004.01-.017.428.005.02.01.013.104.074.015.004.012-.004.104-.074.012-.016.004-.017-.017-.427c-.002-.01-.009-.017-.016-.018m.264-.113-.014.002-.184.093-.01.01-.003.011.018.43.005.012.008.008.201.092c.012.004.023 0 .029-.008l.004-.014-.034-.614c-.003-.012-.01-.02-.02-.022m-.715.002a.023.023 0 0 0-.027.006l-.006.014-.034.614c0 .012.007.02.017.024l.015-.002.201-.093.01-.008.003-.011.018-.43-.003-.012-.01-.01z"/><path fill="#09244B" d="M6.5 4a1.5 1.5 0 1 0-3 0v16A1.5 1.5 0 0 0 5 21.5h14a1.5 1.5 0 0 0 0-3H6.5zM12 8.5a1.5 1.5 0 0 0 0-3H9a1.5 1.5 0 1 0 0 3zm6.5 2.5a1.5 1.5 0 0 1-1.5 1.5H9a1.5 1.5 0 0 1 0-3h8a1.5 1.5 0 0 1 1.5 1.5M14 16.5a1.5 1.5 0 0 0 0-3H9a1.5 1.5 0 0 0 0 3z"/></g></svg>
